Adwaita++-Dark/actions/22/account.svg

<svg height="22" width="22" xmlns="http://www.w3.org/2000/svg">
  <g fill="#e6ddff">
    <path d="m6.5 3c-.831 0-1.5.669-1.5 1.5v.5h12v-.5c0-.831-.669-1.5-1.5-1.5zm-1.5 4v2h12v-2zm0 4v2h12v-2zm0 4v2h12v-2z"/>
    <path d="m5 5v2h12v-2zm0 4v2h12v-2zm0 4v2h12v-2zm0 4v.5c0 .831.669 1.5 1.5 1.5h9c.831 0 1.5-.669 1.5-1.5v-.5z" opacity=".3"/>
    <path d="m15 3v16h.5c.831 0 1.5-.669 1.5-1.5v-.5-2-2-2-2-2-2-.5c0-.831-.669-1.5-1.5-1.5z" opacity=".3"/>
  </g>
</svg>

<svg xmlns="http://www.w3.org/2000/svg" width="22" height="22" version="1.1">
 <defs>
  <style id="current-color-scheme" type="text/css">
   .ColorScheme-Text { color:#E6DDFF; } .ColorScheme-Highlight { color:#4285f4; }
  </style>
 </defs>
 <path style="fill:currentColor" class="ColorScheme-Text" d="M 6.5 3 C 5.669 3 5 3.669 5 4.5 L 5 5 L 17 5 L 17 4.5 C 17 3.669 16.331 3 15.5 3 L 6.5 3 z M 5 7 L 5 9 L 17 9 L 17 7 L 5 7 z M 5 11 L 5 13 L 17 13 L 17 11 L 5 11 z M 5 15 L 5 17 L 17 17 L 17 15 L 5 15 z"/>
 <path style="opacity:0.3;fill:currentColor" class="ColorScheme-Text" d="M 5 5 L 5 7 L 17 7 L 17 5 L 5 5 z M 5 9 L 5 11 L 17 11 L 17 9 L 5 9 z M 5 13 L 5 15 L 17 15 L 17 13 L 5 13 z M 5 17 L 5 17.5 C 5 18.331 5.669 19 6.5 19 L 15.5 19 C 16.331 19 17 18.331 17 17.5 L 17 17 L 5 17 z"/>
 <path style="opacity:0.3;fill:currentColor" class="ColorScheme-Text" d="M 15 3 L 15 19 L 15.5 19 C 16.331 19 17 18.331 17 17.5 L 17 17 L 17 15 L 17 13 L 17 11 L 17 9 L 17 7 L 17 5 L 17 4.5 C 17 3.669 16.331 3 15.5 3 L 15 3 z"/>
</svg>
